X: 449
T: Sit Down beside Me
N:"Slow"
N:Irish title: sui.d sios am aice
B:O'Neill's 449
Z:Transcribed by henrik.norbeck@mailbox.swipnet.se
M:2/4
L:1/8
K:G
(g>a) (g/a/b/a/) | Tg2 d z | .e.d .g.f | Te2 d z |
g(g/a/) (g/a/b/a/) | gd dc/B/ | .e.d .c.B | TA2 G z ||
(B>A) .B.c | (d>e).d.d | (e>f).g.f | Tg2 d z |
Tg2 B>d | e/d/c/B/ A(B/c/) | .d(d/e/) .d(c/B/) | TA2 G z ||


